X:1
T: Mary Had A Little Lamb
M: 4/4
L: 1/4
Q:1/4=140
K:C
E D C D|E E E z1|D D D z1|E G G z1 |E D C D| E E E C |D D E D|C z1 z2|
